X: 212
M: 2/4
L: 1/8
K: G
|:\
|:\
"2.F."GABc | dBc2 | BAB2 | AGFD |\
|:\
"2.F."B2BG | c2cA | B2BG | A2A2 |\

